X:86
M:C
L:1/8
Q:"Allegretto  "1/4=140
K:D
!p!A,2|D2D2A2 (D>E)|[F2D2][E2C2][E2C2](F>E)|\
([BG]cdA) (FGAF)|([BG][AF][GE][FD]) [E2C2] (FE)|\
(A>B)|d2d2 (defd)|(edef) (e2 dB)|\
(ABde) (defe)|d2[A2F2][B2G2][A2F2]|
(BcdA) (FGAG)|(BAGF) (EGFE)|\

